X: 41
T:Phil The Fluter's Ball
M:C|
L:1/8
C:Traditional
R:Hornpipe
Z:Vrhully:btinternet.com tradtunes 2001-12-21
B:Songs & Dances of Ireland, Wise Publ, ISBN 0.7119.0099.X
N:Marked "Moderato e marcato"
K:D
FE|
DDDD dddc|BABc d2FE|DDDD dddB|ABAF E2EF|
DDDD dddc|BABc d2ee|fded dcBA|BBcc d2de|
f2fd e2ec|dedB AFDA|fffd eeec|dcBe A3 d|
f2fd e3 c|dedB AFDF|ABAF dBAF|ABAF E2  ||
%CHORUS
EF|
D2DD d2dc|BABc ddd2|DDDD dddB|ABAF EEFE|
D2D2 ddd2|BABc d2de|fded dcBA|BBcc d3  ||
